assets/svgs/misc-grey/MiscGrey34.svg

<svg width="32" height="36" viewBox="0 0 32 36" fill="none" xmlns="http://www.w3.org/2000/svg">
<path fill-rule="evenodd" clip-rule="evenodd" d="M18.93 17.058L3.11997 0.995989C2.53997 0.404989 1.58997 0.397989 0.99997 0.978989C0.40997 1.55999 0.39997 2.50999 0.97997 3.09999L15.76 18.11L0.97997 33.121C0.39997 33.711 0.40997 34.661 0.99997 35.242C1.28997 35.529 1.66997 35.673 2.04997 35.673C2.43997 35.673 2.82997 35.523 3.11997 35.225L18.93 19.163C19.51 18.579 19.51 17.642 18.93 17.058Z" fill="#1A1919"/>
<path fill-rule="evenodd" clip-rule="evenodd" d="M30.64 17.058L14.82 0.995989C14.24 0.404989 13.29 0.397989 12.7 0.978989C12.11 1.55999 12.1 2.50999 12.69 3.09999L27.46 18.11L12.69 33.121C12.1 33.711 12.11 34.661 12.7 35.242C13 35.529 13.38 35.673 13.75 35.673C14.14 35.673 14.53 35.523 14.82 35.225L30.64 19.163C31.21 18.579 31.21 17.642 30.64 17.058Z" fill="#1A1919"/>
</svg>

<svg xmlns="http://www.w3.org/2000/svg" fill="none" viewBox="0 0 32 36"><path fill="#1A1919" fill-rule="evenodd" d="M18.93 17.058L3.12.996A1.501 1.501 0 00.98 3.1l14.78 15.01L.98 33.121a1.501 1.501 0 002.14 2.104l15.81-16.062a1.49 1.49 0 000-2.105z" clip-rule="evenodd"/><path fill="#1A1919" fill-rule="evenodd" d="M30.64 17.058L14.82.996A1.498 1.498 0 1012.69 3.1l14.77 15.01-14.77 15.011c-.59.59-.58 1.54.01 2.121.3.287.68.431 1.05.431.39 0 .78-.15 1.07-.448l15.82-16.062a1.51 1.51 0 000-2.105z" clip-rule="evenodd"/></svg>
